images_breeze_svg/cmd/sc_savebackground.svg

<svg viewBox="0 0 16 16" xmlns="http://www.w3.org/2000/svg"><path d="m3 2v11.28125.71875h4v-4.6875l-.5-.3125-2.5 3.28125v-9.28125h8v4h1v-5zm4 2c-1.1045695 0-2 .8954305-2 2s.8954305 2 2 2v-1h1.7226562c.17158-.29506.2773438-.634089.2773438-1 0-1.1045695-.8954305-2-2-2zm1 4v6h6v-4.5l-1.5-1.5zm1 1h1v1h2v-1l1 1v3h-4z" fill="#4d4d4d"/></svg>

<?xml version="1.0" encoding="UTF-8" standalone="no"?>
<svg
   xmlns:dc="http://purl.org/dc/elements/1.1/"
   xmlns:cc="http://creativecommons.org/ns#"
   xmlns:rdf="http://www.w3.org/1999/02/22-rdf-syntax-ns#"
   xmlns:svg="http://www.w3.org/2000/svg"
   xmlns="http://www.w3.org/2000/svg"
   xmlns:sodipodi="http://sodipodi.sourceforge.net/DTD/sodipodi-0.dtd"
   xmlns:inkscape="http://www.inkscape.org/namespaces/inkscape"
   viewBox="0 0 16 16"
   version="1.1"
   id="svg4"
   sodipodi:docname="sc_savebackground.svg"
   inkscape:version="0.92.4 (unknown)"
   inkscape:export-filename="/home/rizmut/Dokumen/Rizmut/Github/libreoffice-style-breeze/images_breeze/cmd/sc_savebackground.png"
   inkscape:export-xdpi="96"
   inkscape:export-ydpi="96">
  <metadata
     id="metadata10">
    <rdf:RDF>
      <cc:Work
         rdf:about="">
        <dc:format>image/svg+xml</dc:format>
        <dc:type
           rdf:resource="http://purl.org/dc/dcmitype/StillImage" />
        <dc:title></dc:title>
      </cc:Work>
    </rdf:RDF>
  </metadata>
  <defs
     id="defs8" />
  <sodipodi:namedview
     pagecolor="#ffffff"
     bordercolor="#666666"
     borderopacity="1"
     objecttolerance="10"
     gridtolerance="10"
     guidetolerance="10"
     inkscape:pageopacity="0"
     inkscape:pageshadow="2"
     inkscape:window-width="1360"
     inkscape:window-height="714"
     id="namedview6"
     showgrid="true"
     inkscape:zoom="10.429825"
     inkscape:cx="2.0692128"
     inkscape:cy="1.739081"
     inkscape:window-x="0"
     inkscape:window-y="28"
     inkscape:window-maximized="1"
     inkscape:current-layer="svg4">
    <inkscape:grid
       type="xygrid"
       id="grid817" />
  </sodipodi:namedview>
  <path
     style="fill:#4d4d4d;fill-opacity:1"
     d="M 3 2 L 3 13.28125 L 3 14 L 7 14 L 7 9.3125 L 6.5 9 L 4 12.28125 L 4 3 L 12 3 L 12 7 L 13 7 L 13 2 L 3 2 z M 7 4 C 5.8954305 4 5 4.8954305 5 6 C 5 7.1045695 5.8954305 8 7 8 L 7 7 L 8.7226562 7 C 8.8942362 6.70494 9 6.365911 9 6 C 9 4.8954305 8.1045695 4 7 4 z M 8 8 L 8 14 L 14 14 L 14 9.5 L 12.5 8 L 8 8 z M 9 9 L 10 9 L 10 10 L 12 10 L 12 9 L 13 10 L 13 13 L 9 13 L 9 9 z "
     id="path2" />
</svg>
